packages/icons/src/emoji/svg/house.svg

<svg width="120" height="120" viewBox="0 0 120 120" fill="none" xmlns="http://www.w3.org/2000/svg">
<g clip-path="url(#clip0_212_257)">
<path d="M31.0684 70.3782H60.384V120H31.0684V70.3782Z" fill="#855C52"/>
<path d="M69.3848 67.7532H99.6098V98.3063H69.3848V67.7532Z" fill="white"/>
<path d="M106.668 53.3249L63.7684 14.278C61.6965 12.3937 58.3027 12.3937 56.2309 14.278L13.3215 53.3249C11.2496 55.2187 9.55273 59.053 9.55273 61.8562V114.909C9.55273 117.712 11.8496 120.009 14.6434 120.009H34.3402V85.0124C34.3402 82.8749 36.084 81.1312 38.2121 81.1312H53.7371C55.8652 81.1312 57.6184 82.8749 57.6184 85.0124V120H105.346C108.15 120 110.446 117.712 110.446 114.9V61.8468C110.446 59.053 108.75 55.2093 106.668 53.3249ZM82.059 95.3812H76.5184C73.9309 95.3812 71.8027 93.2624 71.8027 90.6655V85.9312H82.059V95.3812ZM82.059 81.4312H71.8027V75.0843C71.8027 72.4968 73.9309 70.3686 76.5184 70.3686H82.059V81.4312ZM96.8059 90.6655C96.8059 93.253 94.6871 95.3812 92.0902 95.3812H86.5496V85.9312H96.8059V90.6655ZM96.8059 81.4312H86.559V70.378H92.0996C93.3495 70.3805 94.5475 70.8781 95.4313 71.7619C96.3151 72.6458 96.8128 73.8438 96.8152 75.0937V81.4312H96.8059Z" fill="#FCC21B"/>
<mask id="mask0_212_257" style="mask-type:luminance" maskUnits="userSpaceOnUse" x="9" y="12" width="102" height="109">
<path d="M106.668 53.3249L63.7684 14.278C61.6965 12.3937 58.3027 12.3937 56.2309 14.278L13.3215 53.3249C11.2496 55.2187 9.55273 59.053 9.55273 61.8562V114.909C9.55273 117.712 11.8496 120.009 14.6434 120.009H34.3402V85.0124C34.3402 82.8749 36.084 81.1312 38.2121 81.1312H53.7371C55.8652 81.1312 57.6184 82.8749 57.6184 85.0124V120H105.346C108.15 120 110.446 117.712 110.446 114.9V61.8468C110.446 59.053 108.75 55.2093 106.668 53.3249ZM82.059 95.3812H76.5184C73.9309 95.3812 71.8027 93.2624 71.8027 90.6655V85.9312H82.059V95.3812ZM82.059 81.4312H71.8027V75.0843C71.8027 72.4968 73.9309 70.3686 76.5184 70.3686H82.059V81.4312ZM96.8059 90.6655C96.8059 93.253 94.6871 95.3812 92.0902 95.3812H86.5496V85.9312H96.8059V90.6655ZM96.8059 81.4312H86.559V70.378H92.0996C93.3495 70.3805 94.5475 70.8781 95.4313 71.7619C96.3151 72.6458 96.8128 73.8438 96.8152 75.0937V81.4312H96.8059Z" fill="white"/>
</mask>
<g mask="url(#mask0_212_257)">
<path d="M60.6746 24.6468L111.281 71.5124L112.462 71.5218L112.996 54.4124L60.6746 5.9624L7.12461 54.4124L6.78711 70.4062L10.0684 70.4343L60.6746 24.6468Z" fill="#ED6C30"/>
</g>
<path d="M40.1816 104.344C42.0456 104.344 43.5566 102.833 43.5566 100.969C43.5566 99.1048 42.0456 97.5938 40.1816 97.5938C38.3177 97.5938 36.8066 99.1048 36.8066 100.969C36.8066 102.833 38.3177 104.344 40.1816 104.344Z" fill="white"/>
</g>
<defs>
<clipPath id="clip0_212_257">
<rect width="120" height="120" fill="white"/>
</clipPath>
</defs>
</svg>

<svg xmlns="http://www.w3.org/2000/svg" fill="none" aria-hidden="true" data-slot="icon" viewBox="0 0 120 120"><g clip-path="url(#a)"><path fill="#855C52" d="M31.068 70.378h29.316V120H31.068z"/><path fill="#fff" d="M69.385 67.753H99.61v30.553H69.385z"/><path fill="#FCC21B" d="m106.668 53.325-42.9-39.047c-2.072-1.884-5.465-1.884-7.537 0L13.32 53.325c-2.071 1.894-3.768 5.728-3.768 8.531v53.053c0 2.803 2.297 5.1 5.09 5.1H34.34V85.012a3.886 3.886 0 0 1 3.872-3.88h15.525a3.895 3.895 0 0 1 3.881 3.88V120h47.728c2.804 0 5.1-2.288 5.1-5.1V61.847c0-2.794-1.696-6.638-3.778-8.522M82.059 95.38h-5.54c-2.588 0-4.716-2.119-4.716-4.716V85.93h10.256zm0-13.95H71.803v-6.347c0-2.587 2.128-4.715 4.715-4.715h5.541zm14.747 9.234c0 2.588-2.119 4.716-4.716 4.716h-5.54v-9.45h10.256zm0-9.234H86.559V70.378h5.54a4.725 4.725 0 0 1 4.716 4.716v6.337z"/><mask id="b" width="102" height="109" x="9" y="12" maskUnits="userSpaceOnUse" style="mask-type:luminance"><path fill="#fff" d="m106.668 53.325-42.9-39.047c-2.072-1.884-5.465-1.884-7.537 0L13.32 53.325c-2.071 1.894-3.768 5.728-3.768 8.531v53.053c0 2.803 2.297 5.1 5.09 5.1H34.34V85.012a3.886 3.886 0 0 1 3.872-3.88h15.525a3.895 3.895 0 0 1 3.881 3.88V120h47.728c2.804 0 5.1-2.288 5.1-5.1V61.847c0-2.794-1.696-6.638-3.778-8.522M82.059 95.38h-5.54c-2.588 0-4.716-2.119-4.716-4.716V85.93h10.256zm0-13.95H71.803v-6.347c0-2.587 2.128-4.715 4.715-4.715h5.541zm14.747 9.234c0 2.588-2.119 4.716-4.716 4.716h-5.54v-9.45h10.256zm0-9.234H86.559V70.378h5.54a4.725 4.725 0 0 1 4.716 4.716v6.337z"/></mask><g mask="url(#b)"><path fill="#ED6C30" d="m60.675 24.647 50.606 46.865 1.181.01.534-17.11-52.321-48.45-53.55 48.45-.338 15.994 3.281.028z"/></g><path fill="#fff" d="M40.182 104.344a3.375 3.375 0 1 0 0-6.75 3.375 3.375 0 0 0 0 6.75"/></g><defs><clipPath id="a"><path fill="#fff" d="M0 0h120v120H0z"/></clipPath></defs></svg>
